X:0530
T:How Imperfect is Expression.
M:C
L:1/8
Q:1/4=120
I: ::S. ::
N:segno sign printed at the middle double bar
Z:Jack Campin * www.campin.me.uk * 2009
K:C
g3g  ag``fe |e3         e  fedc|(ce)(eg) g2    ag|ga/g/ fe  ecTd2|
g3g (ag)(fe)|e3         e  fedc| ceeg    gf/g/ af|edcB      c4  ::
d3d  ed  d2 |d/f/e/g/ Tfe Td2c2| ceeg    g2    ag|ga/g/ fe Te2 d2|
g3g  ag``fe |e3         e  fedc| ceeg    gf/g/ af|e2d2      c4  :|
<end>
<start>
